X:388
T:Rondeau de l'Agenais
R:rondeau
C:trad.
A:Landes
O:France
Z:S. Piron
M:6/8
L:1/8
Q:1/4=200
K:C
eeee2c|d2fe2c|eeee2c|d2fe2c:|
|:ccde2d|c2AG3|GBdGBd|1fede2c:|2fedc3||
